assets/img/swimmer.svg

<svg 
 xmlns="http://www.w3.org/2000/svg"
 xmlns:xlink="http://www.w3.org/1999/xlink"
 width="50px" height="50px">
<path fill-rule="evenodd"  fill-opacity="0" fill="rgb(33, 130, 238)"
 d="M0.000,0.000 L50.000,0.000 L50.000,50.000 L0.000,50.000 L0.000,0.000 Z"/>
<path fill-rule="evenodd"  fill="rgb(0, 111, 235)"
 d="M32.483,43.285 C31.556,42.410 30.099,42.410 29.172,43.285 C27.694,44.745 25.300,44.745 23.821,43.285 C22.894,42.410 21.437,42.410 20.510,43.285 C19.031,44.745 16.637,44.745 15.159,43.285 C14.232,42.410 12.775,42.410 11.848,43.285 C10.369,44.745 7.975,44.745 6.497,43.285 C5.570,42.410 4.112,42.410 3.186,43.285 L1.021,45.428 L-0.000,44.418 L2.165,42.275 C2.166,42.275 2.167,42.274 2.167,42.274 C3.645,40.812 6.040,40.813 7.517,42.275 C8.432,43.178 9.913,43.178 10.828,42.275 C10.828,42.275 10.829,42.274 10.829,42.274 C12.307,40.812 14.702,40.813 16.179,42.275 C17.106,43.150 18.563,43.150 19.490,42.275 C19.490,42.275 19.491,42.274 19.491,42.274 C20.969,40.812 23.364,40.813 24.841,42.275 C25.768,43.150 27.225,43.150 28.152,42.275 C28.152,42.275 28.153,42.274 28.153,42.274 C29.631,40.812 32.027,40.813 33.503,42.275 C34.418,43.178 35.899,43.178 36.814,42.275 L38.979,40.132 L40.000,41.142 L37.835,43.285 C36.356,44.745 33.962,44.745 32.483,43.285 ZM27.368,36.203 L30.616,39.418 L29.595,40.428 L26.858,37.718 L24.120,40.428 L23.099,39.418 L26.347,36.203 C26.629,35.924 27.086,35.924 27.368,36.203 ZM28.874,34.714 L19.158,25.099 C19.157,25.099 19.157,25.099 19.157,25.098 C18.261,24.212 18.262,22.775 19.158,21.889 L24.903,16.203 C25.318,15.791 25.318,15.125 24.903,14.713 C24.482,14.315 23.820,14.315 23.398,14.713 L17.557,20.493 C15.885,22.151 15.885,24.835 17.557,26.493 L19.527,28.444 C19.809,28.723 19.809,29.175 19.527,29.454 L8.239,40.624 L7.218,39.614 L17.995,28.949 L16.535,27.504 C14.300,25.287 14.300,21.699 16.535,19.482 L22.377,13.703 C23.370,12.766 24.932,12.766 25.925,13.703 C26.902,14.673 26.902,16.243 25.925,17.213 L20.178,22.899 C19.846,23.228 19.846,23.761 20.178,24.089 L29.894,33.704 L36.391,40.133 L35.370,41.143 L28.874,34.714 ZM30.106,29.922 C27.715,29.920 25.777,28.002 25.775,25.636 C25.775,23.269 27.714,21.350 30.106,21.350 C32.498,21.350 34.437,23.269 34.437,25.636 C34.437,28.003 32.498,29.922 30.106,29.922 ZM30.106,22.779 C28.511,22.779 27.218,24.058 27.218,25.636 C27.218,27.214 28.511,28.494 30.106,28.494 C31.700,28.494 32.993,27.214 32.993,25.636 C32.993,24.058 31.700,22.779 30.106,22.779 ZM2.167,46.560 C3.645,45.098 6.040,45.099 7.517,46.561 C8.432,47.463 9.912,47.463 10.828,46.561 C10.828,46.560 10.829,46.560 10.829,46.560 C12.307,45.098 14.702,45.099 16.179,46.561 C17.106,47.436 18.563,47.436 19.490,46.561 C19.490,46.560 19.491,46.560 19.491,46.560 C20.969,45.098 23.364,45.099 24.841,46.561 C25.768,47.436 27.225,47.436 28.152,46.561 C28.152,46.560 28.153,46.560 28.153,46.560 C29.631,45.098 32.027,45.099 33.503,46.561 C34.419,47.463 35.899,47.463 36.814,46.561 L38.979,44.418 L40.000,45.428 L37.835,47.571 C36.356,49.031 33.962,49.031 32.483,47.571 C31.556,46.696 30.099,46.696 29.172,47.571 C27.694,49.031 25.300,49.031 23.821,47.571 C22.894,46.696 21.437,46.696 20.510,47.571 C19.031,49.031 16.637,49.031 15.159,47.571 C14.232,46.696 12.775,46.696 11.848,47.571 C10.369,49.031 7.975,49.031 6.497,47.571 C5.570,46.696 4.112,46.696 3.186,47.571 L1.021,49.714 L-0.000,48.704 L2.165,46.561 C2.166,46.560 2.167,46.560 2.167,46.560 Z"/>
</svg>

<?xml version="1.0" encoding="utf-8"?>
<!-- Generator: Adobe Illustrator 22.1.0, SVG Export Plug-In . SVG Version: 6.00 Build 0)  -->
<svg version="1.1" id="Слой_1" xmlns="http://www.w3.org/2000/svg" xmlns:xlink="http://www.w3.org/1999/xlink" x="0px" y="0px"
	 viewBox="0 0 50 50" style="enable-background:new 0 0 50 50;" xml:space="preserve">
<style type="text/css">
	.st0{fill:#2182EE;fill-opacity:0;}
	.st1{fill:#11A2F6;}
</style>
<path class="st0" d="M0,0h50v50H0V0z"/>
<path class="st1" d="M32.5,43.3c-0.9-0.9-2.4-0.9-3.3,0c-1.5,1.5-3.9,1.5-5.4,0c-0.9-0.9-2.4-0.9-3.3,0c-1.5,1.5-3.9,1.5-5.4,0
	c-0.9-0.9-2.4-0.9-3.3,0c-1.5,1.5-3.9,1.5-5.4,0c-0.9-0.9-2.4-0.9-3.3,0L1,45.4l-1-1l2.2-2.1c0,0,0,0,0,0c1.5-1.5,3.9-1.5,5.4,0
	c0.9,0.9,2.4,0.9,3.3,0l0,0c1.5-1.5,3.9-1.5,5.4,0c0.9,0.9,2.4,0.9,3.3,0l0,0c1.5-1.5,3.9-1.5,5.4,0c0.9,0.9,2.4,0.9,3.3,0l0,0
	c1.5-1.5,3.9-1.5,5.3,0c0.9,0.9,2.4,0.9,3.3,0l2.2-2.1l1,1l-2.2,2.1C36.4,44.7,34,44.7,32.5,43.3z M27.4,36.2l3.2,3.2l-1,1l-2.7-2.7
	l-2.7,2.7l-1-1l3.2-3.2C26.6,35.9,27.1,35.9,27.4,36.2z M28.9,34.7l-9.7-9.6c0,0,0,0,0,0c-0.9-0.9-0.9-2.3,0-3.2l5.7-5.7
	c0.4-0.4,0.4-1.1,0-1.5c-0.4-0.4-1.1-0.4-1.5,0l-5.8,5.8c-1.7,1.7-1.7,4.3,0,6l2,2c0.3,0.3,0.3,0.7,0,1L8.2,40.6l-1-1L18,28.9
	l-1.5-1.4c-2.2-2.2-2.2-5.8,0-8l5.8-5.8c1-0.9,2.6-0.9,3.5,0c1,1,1,2.5,0,3.5l-5.7,5.7c-0.3,0.3-0.3,0.9,0,1.2l9.7,9.6l6.5,6.4l-1,1
	L28.9,34.7z M30.1,29.9c-2.4,0-4.3-1.9-4.3-4.3c0-2.4,1.9-4.3,4.3-4.3s4.3,1.9,4.3,4.3S32.5,29.9,30.1,29.9z M30.1,22.8
	c-1.6,0-2.9,1.3-2.9,2.9c0,1.6,1.3,2.9,2.9,2.9c1.6,0,2.9-1.3,2.9-2.9C33,24.1,31.7,22.8,30.1,22.8z M2.2,46.6
	c1.5-1.5,3.9-1.5,5.4,0c0.9,0.9,2.4,0.9,3.3,0c0,0,0,0,0,0c1.5-1.5,3.9-1.5,5.4,0c0.9,0.9,2.4,0.9,3.3,0c0,0,0,0,0,0
	c1.5-1.5,3.9-1.5,5.4,0c0.9,0.9,2.4,0.9,3.3,0c0,0,0,0,0,0c1.5-1.5,3.9-1.5,5.3,0c0.9,0.9,2.4,0.9,3.3,0l2.2-2.1l1,1l-2.2,2.1
	c-1.5,1.5-3.9,1.5-5.4,0c-0.9-0.9-2.4-0.9-3.3,0c-1.5,1.5-3.9,1.5-5.4,0c-0.9-0.9-2.4-0.9-3.3,0c-1.5,1.5-3.9,1.5-5.4,0
	c-0.9-0.9-2.4-0.9-3.3,0C10.4,49,8,49,6.5,47.6c-0.9-0.9-2.4-0.9-3.3,0L1,49.7l-1-1L2.2,46.6C2.2,46.6,2.2,46.6,2.2,46.6z"/>
</svg>
